icons/glyphs/glyph-smartgit.svg

<?xml version="1.0" encoding="UTF-8" standalone="no"?><svg height="16" viewBox="0 0 4.2333332 4.2333332" width="16" xmlns="http://www.w3.org/2000/svg"><sodipodi:namedview/><metadata><rdf:RDF><cc:Work><dc:format>image/svg+xml</dc:format><dc:type/><dc:title/></cc:Work></rdf:RDF></metadata><path d="m2.1166665.71287637-2.11666659 1.41076653 1.62470699 1.083138.1224732-.6113321-.75964358-.4743897.97720138-.6108154.1586466-.7921997zm.5146973.34261473-.1214395.6056478.7353556.4594034-.9456788.5911784-.162264.8087361 2.0959962-1.3973306z" fill="#d0d0d0" stroke-width=".264583"/></svg>

<?xml version="1.0" encoding="UTF-8" standalone="no"?>
<!-- Created with Inkscape (http://www.inkscape.org/) -->

<svg
   xmlns:dc="http://purl.org/dc/elements/1.1/"
   xmlns:cc="http://creativecommons.org/ns#"
   xmlns:rdf="http://www.w3.org/1999/02/22-rdf-syntax-ns#"
   xmlns:svg="http://www.w3.org/2000/svg"
   xmlns="http://www.w3.org/2000/svg"
   xmlns:sodipodi="http://sodipodi.sourceforge.net/DTD/sodipodi-0.dtd"
   xmlns:inkscape="http://www.inkscape.org/namespaces/inkscape"
   width="16"
   height="16"
   viewBox="0 0 4.2333332 4.2333332"
   version="1.1"
   id="svg8"
   inkscape:version="0.92+devel (f96dc7e339, 2017-07-28, custom)"
   sodipodi:docname="glyph-smartgit.svg">
  <defs
     id="defs2">
    <linearGradient
       gradientTransform="matrix(0.1411064,0,0,0.1411064,-55.259969,-72.004503)"
       id="b"
       y1="513.81"
       x1="401.57999"
       y2="532.44"
       x2="401.92001"
       gradientUnits="userSpaceOnUse">
      <stop
         stop-color="#9559b6"
         id="stop7" />
      <stop
         offset="1"
         stop-color="#8e44ad"
         id="stop9" />
    </linearGradient>
    <linearGradient
       gradientTransform="matrix(0.53331554,0,0,0.53331554,-208.85658,-272.14301)"
       id="c"
       y1="516.46997"
       x1="417.87"
       y2="533.46002"
       x2="417.53"
       gradientUnits="userSpaceOnUse">
      <stop
         stop-color="#1d99f3"
         id="stop12" />
      <stop
         offset="1"
         stop-color="#2972a7"
         id="stop14" />
    </linearGradient>
  </defs>
  <sodipodi:namedview
     id="base"
     pagecolor="#002466"
     bordercolor="#ffffff"
     borderopacity="0.38039216"
     inkscape:pageopacity="1"
     inkscape:pageshadow="2"
     inkscape:zoom="36.415999"
     inkscape:cx="10.094581"
     inkscape:cy="7.9162778"
     inkscape:document-units="px"
     inkscape:current-layer="svg8"
     inkscape:document-rotation="0"
     showgrid="false"
     inkscape:showpageshadow="false"
     borderlayer="true"
     inkscape:window-width="1920"
     inkscape:window-height="1051"
     inkscape:window-x="0"
     inkscape:window-y="0"
     inkscape:window-maximized="1"
     units="px" />
  <metadata
     id="metadata5">
    <rdf:RDF>
      <cc:Work
         rdf:about="">
        <dc:format>image/svg+xml</dc:format>
        <dc:type
           rdf:resource="http://purl.org/dc/dcmitype/StillImage" />
        <dc:title></dc:title>
      </cc:Work>
    </rdf:RDF>
  </metadata>
  <path
     style="fill:#d0d0d0;stroke-width:0.26458332"
     d="M 2.1166665,0.71287637 -9.2916666e-8,2.1236429 1.6247069,3.2067809 1.7471801,2.5954488 0.98753652,2.1210591 1.9647379,1.5102437 2.1233845,0.718044 Z M 2.6313638,1.0554911 2.5099243,1.6611389 3.2452799,2.1205423 2.2996011,2.7117207 2.1373371,3.5204568 4.2333333,2.1231262 Z"
     id="path36"
     inkscape:connector-curvature="0"
     inkscape:label="#" />
</svg>
